X: 25151
T: Maison De Glace
R: jig
M: 6/8
K: Dmajor
|:D3DEF|A3AFA|B3Bcd|cBA GFE|
D3DEF|A3AFA|1 B3BAG|F3 E3:|2 B3Bcd|c3 A3||
|:B3Bcd|B3Bcd|fed edc|Bdc Bdc|
B3Bcd|B3Bcd|fed edc|Bdc d3:|

